static/icons/basic/insight.svg

<svg width="32" height="32" viewBox="0 0 32 32" fill="none" xmlns="http://www.w3.org/2000/svg">
<path d="M12 9.33333H6.13333C5.3866 9.33333 5.01323 9.33333 4.72801 9.47866C4.47713 9.60649 4.27316 9.81046 4.14532 10.0613C4 10.3466 4 10.7199 4 11.4667V25.8667C4 26.6134 4 26.9868 4.14532 27.272C4.27316 27.5229 4.47713 27.7268 4.72801 27.8547C5.01323 28 5.3866 28 6.13333 28H12M12 28H20M12 28L12 6.13333C12 5.3866 12 5.01323 12.1453 4.72801C12.2732 4.47713 12.4771 4.27316 12.728 4.14532C13.0132 4 13.3866 4 14.1333 4L17.8667 4C18.6134 4 18.9868 4 19.272 4.14532C19.5229 4.27316 19.7268 4.47713 19.8547 4.72801C20 5.01323 20 5.3866 20 6.13333V28M20 14.6667H25.8667C26.6134 14.6667 26.9868 14.6667 27.272 14.812C27.5229 14.9398 27.7268 15.1438 27.8547 15.3947C28 15.6799 28 16.0533 28 16.8V25.8667C28 26.6134 28 26.9868 27.8547 27.272C27.7268 27.5229 27.5229 27.7268 27.272 27.8547C26.9868 28 26.6134 28 25.8667 28H20" stroke="#121315" stroke-width="2.66667" stroke-linecap="round" stroke-linejoin="round"/>
</svg>

<svg xmlns="http://www.w3.org/2000/svg" width="32" height="32" fill="none"><path stroke="#121315" stroke-linecap="round" stroke-linejoin="round" stroke-width="2.667" d="M12 9.333H6.133c-.746 0-1.12 0-1.405.146-.25.127-.455.331-.583.582C4 10.347 4 10.72 4 11.467v14.4c0 .746 0 1.12.145 1.405.128.25.332.455.583.583.285.145.659.145 1.405.145H12m0 0h8m-8 0V6.133c0-.746 0-1.12.145-1.405a1.34 1.34 0 0 1 .583-.583C13.013 4 13.387 4 14.133 4h3.734c.746 0 1.12 0 1.405.145.25.128.455.332.583.583.145.285.145.659.145 1.405V28m0-13.333h5.867c.746 0 1.12 0 1.405.145.25.128.455.332.583.583.145.285.145.658.145 1.405v9.067c0 .746 0 1.12-.145 1.405a1.34 1.34 0 0 1-.583.583c-.285.145-.659.145-1.405.145H20"/></svg>
